html/dist/img/svg/medical.svg

<svg width="125" height="124" viewBox="0 0 125 124" fill="none" xmlns="http://www.w3.org/2000/svg">
<circle cx="62.6416" cy="62" r="62" fill="#F16B84"/>
<path fill-rule="evenodd" clip-rule="evenodd" d="M50.2637 31.0511C49.0382 31.4428 47.9593 32.2905 47.3374 33.3501C46.7462 34.3576 46.6454 35.1199 46.6454 38.582V41.7928L41.7892 41.795C36.3557 41.7975 35.8318 41.8545 34.2215 42.6193C32.9838 43.2071 31.5038 44.6604 30.9262 45.8555C30.0926 47.5797 30.1407 46.2566 30.1427 67.4333C30.1444 84.1313 30.1699 86.7798 30.336 87.4847C30.8171 89.5258 32.3246 91.3947 34.2197 92.2996C34.8044 92.5787 35.5854 92.8693 35.9554 92.9455C36.9044 93.1408 88.3798 93.1408 89.3288 92.9455C91.9692 92.4024 94.3297 90.1084 94.9483 87.4847C95.1143 86.7798 95.1398 84.1313 95.1415 67.4333C95.1431 50.6222 95.119 48.0986 94.9502 47.4374C94.4304 45.4015 92.9715 43.5702 91.1565 42.6757C89.4868 41.8529 89.0056 41.7975 83.495 41.795L78.6388 41.7928V38.582C78.6388 35.1199 78.538 34.3576 77.9468 33.3501C77.4859 32.5648 76.6253 31.7886 75.7216 31.3433L74.899 30.9379L62.8353 30.9134C53.3356 30.8941 50.6636 30.9233 50.2637 31.0511ZM73.9815 35.0831C74.134 35.1633 74.3008 35.2919 74.3521 35.3687C74.4034 35.4455 74.4462 36.9223 74.4473 38.6506L74.4492 41.7928H62.6421H50.835L50.8369 38.6506C50.838 36.9223 50.8808 35.4464 50.9321 35.3706C50.9834 35.2948 51.1397 35.168 51.2794 35.0888C51.6442 34.8818 73.5887 34.8762 73.9815 35.0831ZM88.9523 46.181C89.633 46.4131 90.3309 47.0471 90.7326 47.7987L91.0173 48.3311L91.0513 67.0575C91.0752 80.2333 91.044 85.9821 90.9464 86.453C90.7644 87.3313 90.1685 88.0994 89.2988 88.5769L88.6051 88.9578H62.6421H36.6792L35.9855 88.5769C35.1157 88.0994 34.5199 87.3313 34.3378 86.453C34.2402 85.9821 34.2091 80.2333 34.2329 67.0575L34.267 48.3311L34.5516 47.7987C34.9401 47.0718 35.647 46.4133 36.2796 46.1891C36.7359 46.0274 40.2452 46.0011 62.5878 45.9924C85.6598 45.9834 88.4306 46.0032 88.9523 46.181ZM56.9925 52.8883C56.5246 53.0988 56.1016 53.5462 55.9218 54.0208C55.8393 54.2384 55.7864 55.5893 55.7864 57.4744V60.5706L52.4945 60.6084C48.8302 60.6504 48.8476 60.6463 48.2006 61.597C47.9153 62.0161 47.915 62.0249 47.915 67.4384V72.86L48.2037 73.2883C48.3624 73.524 48.6851 73.8467 48.9207 74.0054C49.3383 74.2869 49.4301 74.2941 52.5677 74.2941H55.7864V77.5127C55.7864 80.6504 55.7936 80.7422 56.0751 81.1597C56.2338 81.3954 56.559 81.7198 56.7977 81.8806L57.2317 82.1731L62.7852 82.1376L68.3387 82.102L68.7391 81.7211C69.4862 81.0107 69.4978 80.9452 69.4978 77.4744V74.2941H72.7165C75.8541 74.2941 75.9459 74.2869 76.3635 74.0054C76.5991 73.8467 76.9219 73.524 77.0806 73.2883L77.3693 72.86V67.4384C77.3693 62.0249 77.3689 62.0161 77.0836 61.597C76.4367 60.6466 76.4533 60.6504 72.7957 60.6084L69.5098 60.5707L69.4721 57.2847C69.4306 53.6671 69.4355 53.6901 68.5604 53.0365C68.2208 52.7828 68.0427 52.7738 62.7917 52.7459C58.4676 52.7228 57.2964 52.7516 56.9925 52.8883ZM65.4352 60.161C65.4949 63.2881 65.5144 63.5058 65.7659 63.8428C65.9128 64.0398 66.227 64.3152 66.4642 64.4548C66.8589 64.6874 67.1649 64.7121 70.1009 64.7484L73.3066 64.7881V67.5097V70.2314H70.1182C67.1284 70.2314 66.901 70.2478 66.4681 70.494C65.5023 71.0431 65.5031 71.0398 65.461 74.7702L65.4234 78.1028H62.6361H59.849V74.8842C59.849 71.7466 59.8418 71.6548 59.5603 71.2372C59.4016 71.0016 59.0789 70.6788 58.8433 70.5201C58.4257 70.2387 58.3339 70.2314 55.1963 70.2314H51.9776V67.5097V64.7881L55.1833 64.7484C58.7765 64.7039 58.9293 64.6703 59.528 63.7892L59.849 63.3168V60.13C59.849 58.3772 59.8883 56.904 59.9361 56.856C59.984 56.8081 61.2267 56.7844 62.6975 56.8032L65.3717 56.8373L65.4352 60.161Z" fill="white"/>
</svg>

<svg width="125" height="124" viewBox="0 0 125 124" fill="none" xmlns="http://www.w3.org/2000/svg"><circle cx="62.642" cy="62" r="62" fill="#F16B84"/><path fill-rule="evenodd" clip-rule="evenodd" d="M50.264 31.051c-1.226.392-2.305 1.24-2.927 2.3-.59 1.007-.692 1.769-.692 5.231v3.21l-4.856.003c-5.433.002-5.957.06-7.568.824-1.237.588-2.717 2.041-3.295 3.236-.833 1.725-.785.402-.783 21.578.001 16.698.027 19.347.193 20.052.481 2.04 1.989 3.91 3.884 4.815.584.279 1.365.57 1.735.645.95.196 52.425.196 53.374 0 2.64-.543 5-2.837 5.62-5.46.165-.705.19-3.354.192-20.052.002-16.81-.022-19.334-.19-19.996-.52-2.035-1.98-3.867-3.794-4.761-1.67-.823-2.151-.879-7.662-.881l-4.856-.002v-3.211c0-3.462-.101-4.224-.692-5.232-.461-.785-1.322-1.561-2.225-2.007l-.823-.405-12.064-.025c-9.5-.019-12.171.01-12.571.138zm23.717 4.032c.153.08.32.209.371.286.051.077.094 1.553.095 3.282l.002 3.142H50.835l.002-3.142c.001-1.729.044-3.205.095-3.28a1.25 1.25 0 01.347-.282c.365-.207 22.31-.213 22.702-.006zm14.971 11.098c.681.232 1.379.866 1.78 1.618l.285.532.034 18.727c.024 13.175-.007 18.924-.105 19.395-.182.878-.778 1.646-1.647 2.124l-.694.38H36.68l-.694-.38c-.87-.478-1.465-1.246-1.647-2.124-.098-.47-.129-6.22-.105-19.395l.034-18.727.285-.532c.388-.727 1.095-1.386 1.728-1.61.456-.162 3.965-.188 26.308-.197 23.072-.009 25.843.011 26.364.189zm-31.96 6.707c-.467.21-.89.658-1.07 1.133-.083.217-.136 1.568-.136 3.453v3.097l-3.291.037c-3.665.042-3.647.038-4.294.989-.286.42-.286.428-.286 5.841v5.422l.289.428c.158.236.481.559.717.717.417.282.51.29 3.647.29h3.218v3.218c0 3.137.008 3.23.29 3.647.158.235.483.56.722.72l.434.293 5.553-.035 5.554-.036.4-.38c.747-.711.759-.777.759-4.248v-3.18h3.218c3.138 0 3.23-.007 3.648-.289a3.17 3.17 0 00.717-.717l.288-.428v-5.422c0-5.413 0-5.422-.285-5.841-.647-.95-.63-.947-4.288-.989l-3.286-.037-.038-3.286c-.041-3.618-.036-3.595-.912-4.248-.34-.254-.517-.263-5.768-.291-4.324-.023-5.496.006-5.8.142zm8.443 7.273c.06 3.127.08 3.345.33 3.682.148.197.462.472.7.612.394.232.7.257 3.636.293l3.206.04v5.443h-3.189c-2.99 0-3.217.017-3.65.263-.966.55-.965.546-1.007 4.276l-.038 3.333H59.85v-3.219c0-3.137-.007-3.23-.289-3.647a3.172 3.172 0 00-.717-.717c-.417-.281-.51-.289-3.647-.289h-3.218v-5.443l3.205-.04c3.593-.044 3.746-.078 4.345-.959l.321-.472V60.13c0-1.753.04-3.226.087-3.274.048-.048 1.29-.072 2.761-.053l2.675.034.063 3.324z" fill="#fff"/></svg>
